img/icon_event.svg

<svg width="24" height="24" viewBox="0 0 24 24" fill="none" xmlns="http://www.w3.org/2000/svg">
<g opacity="0.2" clip-path="url(#clip0_322_215)">
<path d="M16.9274 3.08681L17.5367 2.28994C17.8513 1.87866 18.4396 1.80009 18.8509 2.11467C19.2622 2.42925 19.3407 3.01758 19.0261 3.42881L18.4168 4.22569C18.2322 4.46705 17.9535 4.59394 17.6715 4.59394C17.4658 4.59406 17.2658 4.52621 17.1026 4.40095C16.6913 4.08656 16.613 3.49805 16.9274 3.08681ZM22.3881 14.8182L21.4506 14.4901C20.9619 14.319 20.427 14.5767 20.256 15.0654C20.085 15.5541 20.3425 16.0889 20.8312 16.26L21.7687 16.5881C21.8682 16.623 21.9729 16.6409 22.0783 16.641C22.4656 16.641 22.8281 16.3991 22.9633 16.0129C23.1343 15.5243 22.8768 14.9892 22.3881 14.8182V14.8182ZM4.73985 4.22564C4.92445 4.46705 5.20331 4.59375 5.48531 4.59375C5.69094 4.59392 5.89086 4.52614 6.05399 4.40095C6.46527 4.08656 6.54384 3.49805 6.22926 3.08681L5.61988 2.28994C5.30549 1.87866 4.71698 1.80028 4.3057 2.11467C3.89446 2.42925 3.81609 3.01758 4.13048 3.42881L4.73985 4.22564ZM1.6124 14.2557L0.6749 14.5838C0.186228 14.7548 -0.0712562 15.2899 0.0997438 15.7784C0.234931 16.1648 0.597275 16.4064 0.984556 16.4064C1.08726 16.4064 1.19184 16.3894 1.2944 16.3535L2.2319 16.0254C2.72057 15.8544 2.97801 15.3195 2.80701 14.8308C2.63596 14.3423 2.10131 14.0847 1.6124 14.2557ZM11.5314 21.1406C11.0138 21.1406 10.5939 21.5603 10.5939 22.0781V23.0625C10.5939 23.5803 11.0138 24 11.5314 24C12.0493 24 12.4689 23.5803 12.4689 23.0625V22.0781C12.4689 21.5603 12.0493 21.1406 11.5314 21.1406ZM19.4137 18.7864L18.4202 15.8267C18.2554 15.3358 17.7237 15.0714 17.2332 15.2362C16.7424 15.401 16.478 15.9324 16.6426 16.4233L17.6341 19.3773C17.7634 19.7827 17.49 20.0197 17.4029 20.0827C17.2928 20.1625 17.0009 20.322 16.6688 20.0799L12.988 17.4126C12.108 16.771 10.9253 16.771 10.0419 17.4151L6.3622 20.1231C6.0322 20.3637 5.74054 20.2042 5.63048 20.1244C5.54315 20.061 5.26851 19.823 5.40088 19.4138L6.80732 15.0452C7.14238 14.0103 6.77765 12.8848 5.90113 12.2457L2.23124 9.55941C1.8989 9.31716 1.96031 8.9932 2.00202 8.86505C2.04374 8.73652 2.18587 8.4375 2.59804 8.4375H7.13573C8.21901 8.4375 9.17498 7.7325 9.51538 6.6817L10.9216 2.31042C11.0489 1.91747 11.3801 1.875 11.5167 1.875C11.6531 1.875 11.9845 1.91747 12.1113 2.30878L13.5186 6.68334C13.8583 7.73255 14.8145 8.4375 15.8975 8.4375H20.4649C20.8771 8.4375 21.0192 8.73652 21.0609 8.86523C21.1026 8.9932 21.164 9.31734 20.8306 9.5603L18.3374 11.3838C17.9196 11.6896 17.8286 12.2761 18.1342 12.6942C18.4398 13.112 19.0264 13.2028 19.4443 12.8972L21.9362 11.0746C22.8279 10.4244 23.1842 9.3292 22.8436 8.28422C22.5029 7.23834 21.5692 6.5625 20.4649 6.5625H15.8975C15.6342 6.5625 15.3894 6.37462 15.303 6.10748L13.8956 1.73292C13.5547 0.68025 12.6211 0 11.5168 0C10.4124 0 9.47863 0.68025 9.13715 1.73456L7.7309 6.10584C7.6439 6.37462 7.39912 6.5625 7.13577 6.5625H2.59809C1.49376 6.5625 0.559963 7.23834 0.219181 8.28422C-0.121225 9.3292 0.234931 10.4245 1.12518 11.0735L4.79498 13.7598C5.01656 13.9211 5.10829 14.2057 5.02293 14.4692L3.61649 18.8377C3.27524 19.8922 3.63388 20.9932 4.53037 21.6428C4.97535 21.9651 5.48474 22.1264 5.99451 22.1264C6.50774 22.1262 7.02154 21.9629 7.47013 21.6357L11.1498 18.9277C11.3692 18.7677 11.664 18.7677 11.8856 18.9292L15.5665 21.5965C16.4575 22.246 17.61 22.2478 18.503 21.6011C19.3994 20.9516 19.7582 19.8504 19.4167 18.7961C19.4158 18.7928 19.4148 18.7897 19.4137 18.7864V18.7864Z" fill="#1A2339"/>
</g>
<defs>
<clipPath id="clip0_322_215">
<rect width="24" height="24" fill="white"/>
</clipPath>
</defs>
</svg>

<svg width="24" height="24" fill="none" xmlns="http://www.w3.org/2000/svg"><g opacity=".2" clip-path="url(#prefix__clip0_322_215)"><path d="M16.927 3.087l.61-.797a.937.937 0 111.49 1.139l-.61.797a.936.936 0 01-1.314.175.938.938 0 01-.176-1.314zm5.461 11.731l-.937-.328a.938.938 0 00-.62 1.77l.938.328a.938.938 0 10.62-1.77zM4.74 4.226a.936.936 0 001.314.175.937.937 0 00.175-1.314l-.61-.797A.938.938 0 004.13 3.429l.61.797zm-3.128 10.03l-.937.328a.938.938 0 00.62 1.77l.937-.329a.938.938 0 00-.62-1.77zm9.92 6.885a.938.938 0 00-.938.937v.985a.938.938 0 001.875 0v-.985a.937.937 0 00-.938-.937zm7.882-2.355l-.994-2.96a.938.938 0 00-1.777.597l.991 2.954a.614.614 0 01-.231.706.597.597 0 01-.734-.003l-3.681-2.667a2.491 2.491 0 00-2.946.002l-3.68 2.708a.595.595 0 01-.732.001.616.616 0 01-.23-.71l1.407-4.369a2.503 2.503 0 00-.906-2.8L2.231 9.56a.594.594 0 01-.229-.694.596.596 0 01.596-.428h4.538c1.083 0 2.039-.704 2.38-1.755l1.406-4.372a.599.599 0 01.595-.435c.136 0 .468.042.594.434l1.408 4.374a2.506 2.506 0 002.379 1.755h4.567c.412 0 .554.299.596.427a.595.595 0 01-.23.695l-2.494 1.824a.938.938 0 001.107 1.513l2.492-1.822a2.46 2.46 0 00.908-2.79 2.462 2.462 0 00-2.38-1.723h-4.566a.644.644 0 01-.595-.455l-1.407-4.374A2.464 2.464 0 0011.516 0C10.413 0 9.48.68 9.138 1.735l-1.406 4.37a.645.645 0 01-.595.457H2.598A2.463 2.463 0 00.22 8.284a2.46 2.46 0 00.906 2.79l3.67 2.686a.633.633 0 01.228.71l-1.407 4.368a2.472 2.472 0 00.914 2.805c.445.322.955.483 1.465.483.513 0 1.027-.163 1.475-.49l3.68-2.708c.22-.16.514-.16.736.001l3.68 2.668a2.46 2.46 0 002.937.004 2.472 2.472 0 00.91-2.815z" fill="#1A2339"/></g></svg>
